Sources/FrostedUI/Resources/Icons.xcassets/bulb20.imageset/bulb-20.svg

<svg width="20" height="20" viewBox="0 0 20 20" fill="none" xmlns="http://www.w3.org/2000/svg" data-fui-icon="true">
  <path
    d="M13 18.5C13.4142 18.5 13.75 18.8358 13.75 19.25C13.75 19.6642 13.4142 20 13 20H7C6.58579 20 6.25 19.6642 6.25 19.25C6.25 18.8358 6.58579 18.5 7 18.5H13ZM10 0C12.3658 0 14.3158 0.814766 15.6748 2.19141C17.0303 3.56449 17.75 5.4483 17.75 7.5C17.75 10.0296 16.3435 11.7402 15.2549 12.6836C14.6364 13.2197 14.2501 13.8913 14.25 14.5449V14.75C14.25 15.8546 13.3546 16.75 12.25 16.75H7.75C6.64543 16.75 5.75 15.8546 5.75 14.75V14.5449C5.74994 13.8913 5.36361 13.2197 4.74512 12.6836C3.65648 11.7402 2.25 10.0296 2.25 7.5C2.25 5.4483 2.96971 3.56449 4.3252 2.19141C5.68419 0.814766 7.63424 0 10 0ZM10 1.5C7.99076 1.5 6.44081 2.18524 5.39355 3.24609C4.34279 4.31051 3.75 5.8017 3.75 7.5C3.75 9.4232 4.8112 10.7557 5.72754 11.5498C6.54 12.2539 7.24994 13.3049 7.25 14.5449V14.75C7.25 15.0261 7.47386 15.25 7.75 15.25H12.25C12.5261 15.25 12.75 15.0261 12.75 14.75V14.5449C12.7501 13.3049 13.46 12.2539 14.2725 11.5498C15.1888 10.7557 16.25 9.4232 16.25 7.5C16.25 5.8017 15.6572 4.31051 14.6064 3.24609C13.5592 2.18524 12.0092 1.5 10 1.5ZM11.875 8C12.2892 8 12.625 8.33579 12.625 8.75C12.625 9.16421 12.2892 9.5 11.875 9.5H10.75V12.25C10.75 12.6642 10.4142 13 10 13C9.58579 13 9.25 12.6642 9.25 12.25V9.5H8.125C7.71079 9.5 7.375 9.16421 7.375 8.75C7.375 8.33579 7.71079 8 8.125 8H11.875Z"
    fill="currentColor"
  />
</svg>

<svg xmlns="http://www.w3.org/2000/svg" width="20" height="20" fill="none" data-fui-icon="true" viewBox="0 0 20 20"><path fill="currentColor" d="M13 18.5a.75.75 0 0 1 0 1.5H7a.75.75 0 0 1 0-1.5zM10 0c2.366 0 4.316.815 5.675 2.191C17.03 3.564 17.75 5.448 17.75 7.5c0 2.53-1.407 4.24-2.495 5.184-.619.536-1.005 1.207-1.005 1.86v.206a2 2 0 0 1-2 2h-4.5a2 2 0 0 1-2-2v-.205c0-.654-.386-1.325-1.005-1.861C3.656 11.74 2.25 10.03 2.25 7.5c0-2.052.72-3.936 2.075-5.309C5.685.815 7.635 0 10 0m0 1.5c-2.01 0-3.56.685-4.606 1.746C4.343 4.311 3.75 5.802 3.75 7.5c0 1.923 1.061 3.256 1.978 4.05.812.704 1.522 1.755 1.522 2.995v.205a.5.5 0 0 0 .5.5h4.5a.5.5 0 0 0 .5-.5v-.205c0-1.24.71-2.291 1.523-2.995.916-.794 1.977-2.127 1.977-4.05 0-1.698-.593-3.19-1.644-4.254C13.56 2.186 12.01 1.5 10 1.5M11.875 8a.75.75 0 0 1 0 1.5H10.75v2.75a.75.75 0 0 1-1.5 0V9.5H8.125a.75.75 0 0 1 0-1.5z"/></svg>
